X:2811
T:Central Line, The
M:C|
L:1/8
C:Diarmaid Moynihan
R:reel
D:Flook: Flatfish
Z:Devin McCabe
K:BMin
EGAd B2BF|GBAG G~A3|EGAd ~B3d-|deBA BAGF|
!EGAd B2BF|GBAG G~A3|EGAd ~B3d-|deBA (3FGA Bd|
!egag ~a3g|fAde fgfd|egag ~a3g|fAde ~f2zg|
!egag ~a3g|fAde fg (3gga|bzga feed|eBde BAGF||


